X:1
T: Old as the Hills
C:
R:Jig
Q:180
K:A
M:6/8
L:1/16
a2|A2B2A2 c2B2A2|d4e2 f2g2a2|A2B2A2 c4A2|d2B2G2 B2c2d2|e2c2A2 A2c2e2|d4e2 f2g2a2|e2c2e2 d2B2G2|A2c2e2 a4a2|
A2B2A2 c2B2A2|d4e2 f2g2a2|A2B2A2 c4A2|d2B2G2 B2c2d2|e2c2A2 A2c2e2|d4e2 f2g2a2|e2c2e2 d2B2G2|A2c2e2 a4e2|
c4e2 e2c2A2|A2c2a2 e2c2A2|c4e2 e2c2A2|B2c2d2 d2c2B2|c4e2 e2c2A2|A2c2g2 f2g2a2|e2c2e2 d2B2G2|A2c2e2 a4e2|
c4e2 e2c2A2|A2c2a2 e2c2A2|c4e2 e2c2A2|B2c2d2 d2c2B2|c4e2 e2c2A2|A2c2g2 f2g2a2|e2c2e2 d2B2G2|A2c2e2 a4||
